dist/styles/ag-theme-alpine/icons/pivot.svg

<!-- Generated by IcoMoon.io -->
<svg version="1.1" xmlns="http://www.w3.org/2000/svg" width="32" height="32" viewBox="0 0 32 32">
<title>pivot</title>
<path d="M25.128 2.002c2.56 0.096 4.772 2.292 4.87 4.87 0.078 6.084 0.078 12.172 0 18.256-0.096 2.56-2.292 4.772-4.87 4.87-6.084 0.078-12.172 0.078-18.256 0-2.558-0.096-4.772-2.29-4.87-4.87-0.078-6.084-0.078-12.172 0-18.256 0.096-2.56 2.292-4.772 4.87-4.87 6.084-0.078 12.172-0.078 18.256 0zM28.094 9.956h-18.202v18.136c5.086 0.13 10.18 0.098 15.264-0.096 1.48-0.094 2.746-1.35 2.84-2.84 0.192-5.064 0.226-10.134 0.098-15.2zM3.968 24.1c0.010 0.352 0.022 0.704 0.036 1.056 0.094 1.484 1.354 2.746 2.84 2.84 0.338 0.012 0.674 0.024 1.012 0.036v-3.932h-3.888zM22 15.414l-0.292 0.294-1.416-1.416 2.708-2.706c0.902 0.902 1.804 1.804 2.708 2.706l-1.416 1.416-0.292-0.294v3.592c-0.032 2.604-2.246 4.892-4.872 4.992l-3.714 0.002 0.294 0.292-1.416 1.416-2.706-2.708 2.706-2.708c0.472 0.472 0.944 0.944 1.416 1.416l-0.322 0.32c3.372 0.030 6.578-0.164 6.614-3.034v-3.58zM3.88 18.038c0.002 1.346 0.012 2.694 0.038 4.040h3.938v-4.040h-3.976zM3.93 11.976c-0.018 1.348-0.034 2.694-0.044 4.042h3.97v-4.042h-3.926zM9.892 3.986c-0.962 0.008-1.924 0.014-2.886 0.014-1.57 0.020-2.946 1.348-3.004 2.922-0.012 1.012-0.028 2.022-0.042 3.034h3.896v-2.020h2.036v-3.95zM24.136 3.97v3.966h3.898c-0.012-0.364-0.024-0.728-0.038-1.092-0.094-1.48-1.35-2.746-2.84-2.84-0.34-0.012-0.68-0.024-1.020-0.034zM15.996 3.916c-1.356 0.014-2.714 0.032-4.070 0.048v3.972h4.070v-4.020zM22.102 3.924c-1.358-0.022-2.714-0.026-4.070-0.022v4.034h4.070v-4.012z"></path>
</svg>

<?xml version="1.0" encoding="UTF-8" standalone="no"?>
<!DOCTYPE svg PUBLIC "-//W3C//DTD SVG 1.1//EN" "http://www.w3.org/Graphics/SVG/1.1/DTD/svg11.dtd">
<svg width="100%" height="100%" viewBox="0 0 32 32" version="1.1" xmlns="http://www.w3.org/2000/svg" xmlns:xlink="http://www.w3.org/1999/xlink" xml:space="preserve" xmlns:serif="http://www.serif.com/" style="fill-rule:evenodd;clip-rule:evenodd;stroke-linejoin:round;stroke-miterlimit:2;">
    <path id="pivot" d="M25.128,2.002C27.688,2.098 29.9,4.294 29.998,6.872C30.076,12.956 30.076,19.044 29.998,25.128C29.902,27.688 27.706,29.9 25.128,29.998C19.044,30.076 12.956,30.076 6.872,29.998C4.314,29.902 2.1,27.708 2.002,25.128C1.924,19.044 1.924,12.956 2.002,6.872C2.098,4.312 4.294,2.1 6.872,2.002C12.956,1.924 19.044,1.924 25.128,2.002ZM28.094,9.956L9.892,9.956L9.892,28.092C14.978,28.222 20.072,28.19 25.156,27.996C26.636,27.902 27.902,26.646 27.996,25.156C28.188,20.092 28.222,15.022 28.094,9.956ZM3.968,24.1C3.978,24.452 3.99,24.804 4.004,25.156C4.098,26.64 5.358,27.902 6.844,27.996C7.182,28.008 7.518,28.02 7.856,28.032L7.856,24.1L3.968,24.1ZM22,15.414L21.708,15.708L20.292,14.292L23,11.586C23.902,12.488 24.804,13.39 25.708,14.292L24.292,15.708L24,15.414L24,19.006C23.968,21.61 21.754,23.898 19.128,23.998L15.414,24L15.708,24.292L14.292,25.708L11.586,23L14.292,20.292C14.764,20.764 15.236,21.236 15.708,21.708L15.386,22.028C18.758,22.058 21.964,21.864 22,18.994L22,15.414ZM3.88,18.038C3.882,19.384 3.892,20.732 3.918,22.078L7.856,22.078L7.856,18.038L3.88,18.038ZM3.93,11.976C3.912,13.324 3.896,14.67 3.886,16.018L7.856,16.018L7.856,11.976L3.93,11.976ZM9.892,3.986C8.93,3.994 7.968,4 7.006,4C5.436,4.02 4.06,5.348 4.002,6.922C3.99,7.934 3.974,8.944 3.96,9.956L7.856,9.956L7.856,7.936L9.892,7.936L9.892,3.986ZM24.136,3.97L24.136,7.936L28.034,7.936C28.022,7.572 28.01,7.208 27.996,6.844C27.902,5.364 26.646,4.098 25.156,4.004C24.816,3.992 24.476,3.98 24.136,3.97ZM15.996,3.916C14.64,3.93 13.282,3.948 11.926,3.964L11.926,7.936L15.996,7.936L15.996,3.916ZM22.102,3.924C20.744,3.902 19.388,3.898 18.032,3.902L18.032,7.936L22.102,7.936L22.102,3.924Z" style="fill-rule:nonzero;"/>
</svg>
